svgs/duotone/file-image.svg

<svg xmlns="http://www.w3.org/2000/svg" viewBox="0 0 384 512"><!--! Font Awesome Pro 6.3.0 by @fontawesome - https://fontawesome.com License - https://fontawesome.com/license (Commercial License) Copyright 2023 Fonticons, Inc. --><defs><style>.fa-secondary{opacity:.4}</style></defs><path class="fa-primary" d="M256 0v128h128L256 0zM231.1 295.1C229 290.7 224 288 218.7 288s-10.35 2.674-13.31 7.125L160 363.2l-13.35-20.03C143.7 338.7 138.7 336 133.3 336s-10.35 2.674-13.31 7.125l-53.33 80c-3.273 4.908-3.578 11.22-.7949 16.42C68.68 444.8 74.1 448 80 448h224c5.9 0 11.32-3.248 14.11-8.451c2.783-5.201 2.479-11.52-.7949-16.42L231.1 295.1z"/><path class="fa-secondary" d="M256 128V0H48C21.49 0 0 21.49 0 48v416C0 490.5 21.49 512 48 512h288c26.51 0 48-21.49 48-48V128H256zM96 224c17.67 0 32 14.33 32 32S113.7 288 96 288S64 273.7 64 256S78.33 224 96 224zM318.1 439.5C315.3 444.8 309.9 448 304 448h-224c-5.9 0-11.32-3.248-14.11-8.451c-2.783-5.201-2.479-11.52 .7949-16.42l53.33-80C122.1 338.7 127.1 336 133.3 336s10.35 2.674 13.31 7.125L160 363.2l45.35-68.03C208.3 290.7 213.3 288 218.7 288s10.35 2.674 13.31 7.125l85.33 128C320.6 428 320.9 434.3 318.1 439.5z"/></svg>

<svg xmlns="http://www.w3.org/2000/svg" viewBox="0 0 384 512"><!-- Font Awesome Pro 6.0.0-alpha2 by @fontawesome - https://fontawesome.com License - https://fontawesome.com/license (Commercial License) --><defs><style>.fa-secondary{opacity:.4}</style></defs><path d="M256 128V0H48C21.49 0 0 21.492 0 48V464C0 490.508 21.49 512 48 512H336C362.51 512 384 490.508 384 464V128H256ZM96 224C113.674 224 128 238.328 128 256S113.674 288 96 288S64 273.672 64 256S78.326 224 96 224ZM318.107 439.549C315.322 444.752 309.9 448 304 448H80C74.1 448 68.678 444.752 65.893 439.549C63.109 434.348 63.414 428.033 66.688 423.125L120.021 343.125C122.988 338.674 127.984 336 133.334 336S143.68 338.674 146.646 343.125L160 363.156L205.354 295.125C208.32 290.674 213.316 288 218.666 288S229.012 290.674 231.979 295.125L317.312 423.125C320.586 428.033 320.891 434.348 318.107 439.549Z" class="fa-secondary"/><path d="M256 0V128H384L256 0ZM231.978 295.125C229.012 290.674 224.016 288 218.666 288S208.32 290.674 205.353 295.125L160 363.156L146.646 343.125C143.68 338.674 138.683 336 133.334 336S122.988 338.674 120.021 343.125L66.687 423.125C63.414 428.033 63.109 434.348 65.892 439.549C68.678 444.752 74.1 448 80 448H304C309.9 448 315.322 444.752 318.107 439.549C320.891 434.348 320.586 428.033 317.312 423.125L231.978 295.125Z" class="fa-primary"/></svg>
